X:4428
T:Mrs Catherine McNally of Glenburn
O:england
M:6/8
L:1/8
Q:90
C:Stephen P. McNally
R:Slow Jig
K:D
|:F|G2gg2f|g2g g>fe|A2ff2g|a2g f>ed|c2ed2A|B>cd B2A|G>FG A>BG|F3-F2 G¬|
| B2gg2f|g2b a>gf|A>ff a>ff|g>fe f3|g>fe f>ed|e>dc d>cG|g>fe d>AB|d3-d2:
|
|:e/2f/2|gzB4-|B2g f>ed|fzA4-|A2f f>ed|c2ed2A|B>cd B2A|G>FG A>BG|F>GA d>
ef|
| gzB4-|B2g b>ag|f2a4-|a2b a>gf|g>fe f>ed|e>dc d>cG|g>fe d>AB|d3-d2:|


